X: 115
T:Missa Rosina / Agnus Dei
N: Derived from Jos0904e-Missa_Rosina-Agnus.krn
C: Josquin des Prez
%%abc-version 2.0
%%abcx-abcm2ps-target-version 5.9.1 (29 Sep 2008)
%%abc-creator hum2abc beta
%%abcx-conversion-date 2019/02/12 16:15:43
%%abc-edited-by Jesse Rodin
%%abc-edited-by Rob Wegman; Jesse Rodin (May 2013)
%%abcx-initial-encoding-date 2013/05/10/
%%humdrum-veritas 687797638
%%humdrum-veritas-data 1488573604
%%linebreak <none>
%%barnumbers 0
L: 1/4
M: 4/2
Q: 1/2=120
K: C clef=treble-8
Z2 | 
E6F2 | 
G4z2A2- | 
A2G2A2c2 | 
B4A4 | 
z8 | 
G3AB2c2 | 
B2e4d2 | 
e8 | 
z8 | 
A4G2F2- | 
F2E2D4 | 
C8 | 
z8 | 
c4B2A2- | 
A2G2F4 | 
E8 | 
Z2 | 
E6F2 | 
G4z2A2- | 
A2G2A2c2 | 
B4A4 | 
z8 | 
G3AB2c2 | 
B2e4d2 | 
e8 | 
z8 | 
A4G2F2- | 
F2E2D4 | 
C8 | 
z8 | 
c4B2A2- | 
A2G2F4 | 
E8 | 
E8 |]  



